!!!!SEGMENT: Lhe2032-Nigra_sum.krn
!!!id: Lhe2032
!!!AGN: Motet
!!!SCT: Merritt (1962)
!!!voices: 6
!!!COM: Jean Lhéritier
!!!OTL: Nigra sum
**kern	**kern	**kern	**kern	**kern	**kern
*part6	*part5	*part4	*part3	*part2	*part1
*staff6	*staff5	*staff4	*staff3	*staff2	*staff1
*I"Bassus	*I"Tenor III	*I"Tenor II	*I"Tenor I	*I"Altus	*I"Superius
*I'B	*I'T. III	*I'T. II	*I'T. I	*I'A	*I'S
*clefF4	*clefGv2	*clefGv2	*clefGv2	*clefG2	*clefG2
*k[b-]	*k[b-]	*k[b-]	*k[b-]	*k[b-]	*k[b-]
*F:	*F:	*F:	*F:	*F:	*F:
*M2/1	*M2/1	*M2/1	*M2/1	*M2/1	*M2/1
*met(C|)	*met(C|)	*met(C|)	*met(C|)	*met(C|)	*met(C|)
!!section: Prima pars: Nigra sum
!!!OMD: Prima pars: Nigra sum
=1	=1	=1	=1	=1	=1
0r	0r	0r	0r	0r	0cc
=2	=2	=2	=2	=2	=2
0r	0r	0r	0r	0r	1cc
.	.	.	.	.	1g
=3	=3	=3	=3	=3	=3
0r	0r	0r	0r	0f	1.cc
.	.	.	.	.	2b-y
=4	=4	=4	=4	=4	=4
0r	0r	0r	0r	1f	1a
.	.	.	.	1c	2g
.	.	.	.	.	[2ee
=5	=5	=5	=5	=5	=5
0r	0r	0B-y	0r	1.f	2ee]
.	.	.	.	.	2.dd
.	.	.	.	.	4cc
.	.	.	.	2e	[2cc
=6	=6	=6	=6	=6	=6
0r	0r	1B-y	[0f	1d	2cc]
.	.	.	.	.	2b-y
.	.	1F	.	2c	2cc
.	.	.	.	[2a	[2ff
=7	=7	=7	=7	=7	=7
0r	0r	1.B-y	1f]	4a]	4ff]
.	.	.	.	4g	4ee
.	.	.	.	4f	4dd
.	.	.	.	4e	4cc
.	.	.	1f	4d	2b-y
.	.	.	.	4c	.
.	.	2A	.	[2f	[2cc
=8	=8	=8	=8	=8	=8
0r	0r	1G	1B-y	2f]	4cc]
.	.	.	.	.	4b-y
.	.	.	.	2e	1b-y
.	.	2F	[1f	2d	.
.	.	[2d	.	4c	4a
.	.	.	.	4B-y	4g
=9	=9	=9	=9	=9	=9
0F	0r	2d]	2f]	1A	1a
.	.	2.c	2e	.	.
.	.	.	1d	1f	1r
.	.	4B-y	.	.	.
.	.	[2B-y	.	.	.
=10	=10	=10	=10	=10	=10
1F	0r	2B-]	1c	2f	1r
.	.	2A	.	2f	.
1BB-y	.	2B-y	2r	1d	[1f
.	.	2d	[2B-y	.	.
=11	=11	=11	=11	=11	=11
1.F	0r	1c	2B-]	2r	1f]
.	.	.	4A	1a	.
.	.	.	4G	.	.
.	.	1c	4A	.	1cc
.	.	.	4B-y	.	.
2E	.	.	[2c	2g	.
=12	=12	=12	=12	=12	=12
1D	0r	1F	2c]	1f	1dd
.	.	.	2B-y	.	.
[1C	.	2r	[1c	[1e	1ee
.	.	[2G	.	.	.
=13	=13	=13	=13	=13	=13
0C_	0C	2G]	2c]	1e]	2r
.	.	2G	4B-y	.	1cc
.	.	.	4A	.	.
.	.	[1g	1G	2r	.
.	.	.	.	[2c	2cc
=14	=14	=14	=14	=14	=14
0C_	0E	1g]	2r	2c]	0gg
.	.	.	1c	2c	.
.	.	2r	.	1g	.
.	.	[2c	2c	.	.
=15	=15	=15	=15	=15	=15
0C_	0E	2c]	1g	1r	2r
.	.	2c	.	.	1cc
.	.	[1g	1r	2r	.
.	.	.	.	[2c	2cc
=16	=16	=16	=16	=16	=16
1C]	0E	2g]	2r	2c]	1.gg
.	.	2f	1c	2c	.
[1C	.	2e	.	[1g	.
.	.	2d	2c	.	2ff
=17	=17	=17	=17	=17	=17
2C]	0E	2c	1.g	2g]	2ee
2C	.	1c	.	2f	2dd
[1c	.	.	.	2e	[1cc
.	.	2c	2f	2d	.
=18	=18	=18	=18	=18	=18
2c]	0E	1g	2e	1.c	1cc]
2B-y	.	.	2d	.	.
2A	.	2r	2c	.	1r
2G	.	2G	2B-y	2c	.
=19	=19	=19	=19	=19	=19
4F	0D	1A	2A	1f	2r
4E	.	.	.	.	.
4D	.	.	1G	.	1dd
4C	.	.	.	.	.
1D	.	1B-y	.	1f	.
.	.	.	2F	.	2dd
=20	=20	=20	=20	=20	=20
1C	0E	1.c	1G	2e	1.gg
.	.	.	.	1g	.
[1c	.	.	1r	.	.
.	.	2d	.	2g	2ff
=21	=21	=21	=21	=21	=21
2c]	0C	1e	1r	1g	2ee
2B-y	.	.	.	.	2dd
1A	.	1f	1F	1a	[1cc
=22	=22	=22	=22	=22	=22
0G	0D	1.g	1.B-y	1r	2cc]
.	.	.	.	.	4bni
.	.	.	.	.	4a
.	.	.	.	2r	1bni
.	.	2d	2G	2g	.
=23	=23	=23	=23	=23	=23
[0C	[0C	2.e	0G	2g	[0cc
.	.	.	.	2g	.
.	.	4f	.	.	.
.	.	1g	.	1e	.
=24	=24	=24	=24	=24	=24
0C]	0C_	2e	1r	1g	0cc]
.	.	1g	.	.	.
.	.	.	2r	2e	.
.	.	2g	[2c	2c	.
=25	=25	=25	=25	=25	=25
0r	0C]	2e	2c]	2g	1r
.	.	2.g	2c	2e	.
.	.	.	2A	1a	[1cc
.	.	4f	.	.	.
.	.	[2f	2F	.	.
=26	=26	=26	=26	=26	=26
0r	0r	2f]	1c	1g	2cc]
.	.	2e	.	.	2cc
.	.	2f	[1d	2r	2a
.	.	2d	.	[2a	2f
=27	=27	=27	=27	=27	=27
0r	0r	1.a	1d]	2a]	2r
.	.	.	.	2f	1ff
.	.	.	[1c	[1cc	.
.	.	4g	.	.	4ee
.	.	4f	.	.	4dd
=28	=28	=28	=28	=28	=28
2r	0r	1g	1c]	2cc]	1ee
1c	.	.	.	2cc	.
.	.	[1f	[1F	2.a	2.ff
2c	.	.	.	.	.
.	.	.	.	4g	8eeL
.	.	.	.	.	8ddJ
=29	=29	=29	=29	=29	=29
2A	0r	2f]	1F]	4a	2cc
.	.	.	.	4b-y	.
2F	.	2a	.	1cc	1ff
[1c	.	1g	1r	.	.
.	.	.	.	4b-y	[2ee
.	.	.	.	4a	.
=30	=30	=30	=30	=30	=30
2c]	0E	0r	1r	1g	4ee]
.	.	.	.	.	4dd
2B-y	.	.	.	.	1dd
1A	.	.	1c	1a	.
.	.	.	.	.	2cc
=31	=31	=31	=31	=31	=31
2G	[0G	0r	1d	0b-y	2b-y
2.B-y	.	.	.	.	4g
.	.	.	.	.	4a
.	.	.	2G	.	4b-y
4A	.	.	.	.	4cc
4G	.	.	[2d	.	2dd
4F	.	.	.	.	.
=32	=32	=32	=32	=32	=32
2G	0G_	2r	2d]	0r	2b-y
2C	.	1c	2c	.	1ee-i
1G	.	.	2d	.	.
.	.	2B-y	2G	.	2dd
=33	=33	=33	=33	=33	=33
2C	0G_	2c	2r	2r	2ee-i
2G	.	2G	2d	1b-y	2.dd
2E	.	2B-y	1e-X	.	.
.	.	.	.	.	4cc
2C	.	2c	.	2a	[2cc
=34	=34	=34	=34	=34	=34
1G	0G]	[0G	1d	2g	2cc]
.	.	.	.	2d	2bni
1C	.	.	[1c	2.e	1cc
.	.	.	.	4f	.
=35	=35	=35	=35	=35	=35
2r	[0D	1G]	2c]	4g	0r
.	.	.	.	4a	.
1G	.	.	4B-y	2.b-y	.
.	.	.	4A	.	.
.	.	2r	2B-y	.	.
.	.	.	.	8aL	.
.	.	.	.	8gJ	.
2F	.	2d	2f	2a	.
=36	=36	=36	=36	=36	=36
2G	0D_	2B-y	2d	2b-y	1.dd
2D	.	2.d	2.f	1a	.
2F	.	.	.	.	.
.	.	4c	4e	.	.
2G	.	2B-y	4d	[2g	2dd
.	.	.	4c	.	.
=37	=37	=37	=37	=37	=37
1D	0D]	1A	1d	2g]	2dd
.	.	.	.	2f	2a
2.G	.	2G	1B-y	2.g	2.b-y
.	.	[2g	.	.	.
4A	.	.	.	8fL	4cc
.	.	.	.	8eJ	.
=38	=38	=38	=38	=38	=38
2B-y	[0G	4g]	0r	2d	2dd
.	.	4f	.	.	.
1c	.	4e	.	2c	1ee-i
.	.	4d	.	.	.
.	.	1c	.	2.e	.
4B-y	.	.	.	.	4dd
4A	.	.	.	4f	4cc
=39	=39	=39	=39	=39	=39
2G	0G_	1e-X	2r	1g	2b-y
2C	.	.	2G	.	1cc
1G	.	1d	2.B-y	2r	.
.	.	.	.	2d	2bni
.	.	.	4A	.	.
=40	=40	=40	=40	=40	=40
1.C	0G]	0c	2.G	2e	0cc
.	.	.	.	1f	.
.	.	.	4F	.	.
.	.	.	1G	.	.
2C	.	.	.	2e	.
=41	=41	=41	=41	=41	=41
2F	[0A	1A	2r	2.f	2r
2D	.	.	1d	.	1ff
.	.	.	.	4g	.
1A	.	2r	.	4a	.
.	.	.	.	4b-y	.
.	.	2e	2c	2cc	2ee
=42	=42	=42	=42	=42	=42
0r	0A_	2f	2d	2a	2dd
.	.	2e	2A	2.cc	2.ee
.	.	2A	2c	.	.
.	.	.	.	4b-y	4dd
.	.	[2f	2d	4a	[2dd
.	.	.	.	4g	.
=43	=43	=43	=43	=43	=43
1r	0A]	4f]	1.A	2a	2dd]
.	.	8eL	.	.	.
.	.	8dJ	.	.	.
.	.	2e	.	2a	2cc#i
1D	.	[1d	.	2.f	[1dd
.	.	.	2A	.	.
.	.	.	.	4e	.
=44	=44	=44	=44	=44	=44
1G	[0G	2d]	1B-y	2d	1dd]
.	.	2d	.	2.g	.
2C	.	2c	2.G	.	1r
.	.	.	.	4f	.
[2G	.	[2B-y	.	2e	.
.	.	.	4A	.	.
=45	=45	=45	=45	=45	=45
2G]	0G]	2B-]	4B-y	1d	1dd
.	.	.	4c	.	.
2F	.	1A	1d	.	.
1E	.	.	.	2r	2ee
.	.	2G	2c	[2g	2cc
=46	=46	=46	=46	=46	=46
1D	0r	2.d	2B-y	2g]	4dd
.	.	.	.	.	4ee
.	.	.	2A	2f	4ff
.	.	4c	.	.	4dd
1G	.	4B-y	2G	2g	2ee
.	.	4A	.	.	.
.	.	2B-y	2g	2b-y	[2dd
=47	=47	=47	=47	=47	=47
2A	0r	2c	2e	1a	2dd]
2F	.	2A	2f	.	1cc
1G	.	2.B-y	1d	2.g	.
.	.	.	.	.	2bni
.	.	4A	.	4f	.
=48	=48	=48	=48	=48	=48
2C	[0G	0G	0c	2e	2cc
1C	.	.	.	2c	2g
.	.	.	.	1e	2g
2C	.	.	.	.	[2cc
=49	=49	=49	=49	=49	=49
1G	0G_	2r	0r	1d	2cc]
.	.	2G	.	.	2b-y
1C	.	2G	.	1c	2cc
.	.	[2c	.	.	2ee-i
=50	=50	=50	=50	=50	=50
1G	0G]	2c]	2r	0r	1dd
.	.	2B-y	2G	.	.
1C	.	2c	2G	.	2.cc
.	.	2e-i	[2c	.	.
.	.	.	.	.	4cc
=51	=51	=51	=51	=51	=51
1G	[0G	1d	2c]	2r	2g
.	.	.	2B-y	2G	2dd
1C	.	2.c	2c	2G	2ee
.	.	.	2e-i	[2c	[2gg
.	.	4c	.	.	.
=52	=52	=52	=52	=52	=52
2r	0G_	1G	1d	2c]	2gg]
2G	.	.	.	2B-y	2dd
2C	.	1r	2.c	2c	2ee
[2c	.	.	.	2e-i	2cc
.	.	.	4c	.	.
=53	=53	=53	=53	=53	=53
2c]	0G]	0r	1G	2d	4dd
.	.	.	.	.	4g
2B-y	.	.	.	2.b-y	1dd
2e-i	.	.	1r	.	.
.	.	.	.	4a	.
2e-i	.	.	.	[2g	2cc
=54	=54	=54	=54	=54	=54
1d	[0A	2r	1r	2g]	0dd
.	.	1d	.	4f	.
.	.	.	.	4e	.
[1D	.	.	2r	[1f	.
.	.	2d	[2d	.	.
=55	=55	=55	=55	=55	=55
2D]	0A_	2A	2d]	0f]	2r
2D	.	2A	2d	.	1dd
1D	.	2.d	2A	.	.
.	.	.	2A	.	2dd
.	.	8cL	.	.	.
.	.	8B-yJ	.	.	.
=56	=56	=56	=56	=56	=56
1D	0A]	2A	2.d	2r	2.ff
.	.	2A	.	1f	.
.	.	.	8cL	.	4ee
.	.	.	8B-yJ	.	.
1D	.	1d	2A	.	2dd
.	.	.	2A	2f	2cc
=57	=57	=57	=57	=57	=57
1.G	[0G	2e-X	1B-y	2g	2.b-y
.	.	2.d	.	2.b-y	.
.	.	.	.	.	4cc
.	.	.	1r	.	2dd
.	.	4G	.	4a	.
2C	.	[2c	.	4g	[2ee-i
.	.	.	.	4f	.
=58	=58	=58	=58	=58	=58
2G	0G]	2c]	2r	2g	4ee-]
.	.	.	.	.	4dd
2G	.	2Bni	1G	2d	1dd
1C	.	1c	.	1e	.
.	.	.	2G	.	2cc
=59	=59	=59	=59	=59	=59
1G	0G	2r	1B-y	1d	1dd
.	.	1G	.	.	.
1E	.	.	1c	1r	1ee
.	.	2G	.	.	.
=60	=60	=60	=60	=60	=60
0D	[0F	2B-y	1.d	1r	2.ff
.	.	2A	.	.	.
.	.	.	.	.	4ee
.	.	2F	.	[1a	2dd
.	.	[2d	4c	.	[2ff
.	.	.	4B-y	.	.
=61	=61	=61	=61	=61	=61
1.D	0F]	4d]	2A	2a]	4ff]
.	.	4c	.	.	4ee
.	.	2B-y	2B-y	2d	4dd
.	.	.	.	.	4cc
.	.	2.A	1F	2d	1dd
2D	.	.	.	[2a	.
.	.	4B-y	.	.	.
=62	=62	=62	=62	=62	=62
2.A	0E	1.c	0r	4a]	1ee
.	.	.	.	4g	.
.	.	.	.	4a	.
4G	.	.	.	4b-y	.
4A	.	.	.	2.cc	2.a
4B-y	.	.	.	.	.
[2c	.	4A	.	.	.
.	.	4G	.	4b-y	4b-y
=63	=63	=63	=63	=63	=63
2c]	0E	4A	0r	2a	1cc
.	.	4B-y	.	.	.
4B-y	.	1c	.	4g	.
4A	.	.	.	4f	.
1G	.	.	.	4g	1r
.	.	.	.	4a	.
.	.	2B-y	.	4b-y	.
.	.	.	.	4g	.
=64	=64	=64	=64	=64	=64
0F	[0F	0c	2r	0a	2r
.	.	.	1A	.	1cc
.	.	.	2A	.	2cc
=65	=65	=65	=65	=65	=65
0r	0F]	0r	2B-y	0r	2dd
.	.	.	2A	.	2cc
.	.	.	1d	.	2a
.	.	.	.	.	2b-y
=66	=66	=66	=66	=66	=66
1.F	0F	0r	0c	0r	2cc
.	.	.	.	.	1cc
2F	.	.	.	.	2cc
=67	=67	=67	=67	=67	=67
2B-y	0F	0r	0r	2r	2dd
2A	.	.	.	2a	2cc
1d	.	.	.	2a	1ff
.	.	.	.	2b-y	.
=68	=68	=68	=68	=68	=68
1c	[0G	2r	0r	2cc	2ee
.	.	1e-X	.	2cc	1gg
1r	.	.	.	1b-y	.
.	.	2d	.	.	2ff
=69	=69	=69	=69	=69	=69
0r	0G_	2c	1r	0r	2ee
.	.	2B-y	.	.	1dd
.	.	1e-i	2r	.	.
.	.	.	[2c	.	2cc
=70	=70	=70	=70	=70	=70
1G	0G_	1d	2c]	0r	1dd
.	.	.	2B-y	.	.
[1c	.	1r	2c	.	2r
.	.	.	[2e-i	.	[2cc
=71	=71	=71	=71	=71	=71
2c]	0G]	0r	2e-]	0r	2cc]
2c	.	.	4d	.	2ee
.	.	.	4c	.	.
2B-y	.	.	2d	.	2dd
2c	.	.	2e-i	.	[2cc
=72	=72	=72	=72	=72	=72
4F	[0A	0r	1c	0r	2cc]
4G	.	.	.	.	.
4A	.	.	.	.	2ff
4B-y	.	.	.	.	.
2c	.	.	1r	.	2ee
[2d	.	.	.	.	[2ff
=73	=73	=73	=73	=73	=73
2d]	0A_	1d	1r	0r	2ff]
4c	.	.	.	.	4ee
4B-y	.	.	.	.	4dd
2A	.	2e	2r	.	[1cc
[2c	.	2c	[2F	.	.
=74	=74	=74	=74	=74	=74
4c]	0A]	0f	4F]	0r	0cc_
4B-y	.	.	4G	.	.
4A	.	.	4A	.	.
4G	.	.	4B-y	.	.
2.F	.	.	4c	.	.
.	.	.	4F	.	.
.	.	.	[2c	.	.
4E	.	.	.	.	.
=75	=75	=75	=75	=75	=75
4C	[0G	0e	2c]	0r	1cc]
4D	.	.	.	.	.
4E	.	.	4B-y	.	.
4F	.	.	4A	.	.
2G	.	.	2B-y	.	1r
2A	.	.	2c	.	.
=76	=76	=76	=76	=76	=76
2B-y	0G_	0d	0G	0r	1r
1c	.	.	.	.	.
.	.	.	.	.	1dd
2B-y	.	.	.	.	.
=77	=77	=77	=77	=77	=77
2c	0G]	1.c	0r	1cc	2.ee
2.C	.	.	.	.	.
.	.	.	.	.	4ff
.	.	.	.	2cc	1gg
4D	.	.	.	.	.
4E	.	[2G	.	2cc	.
4F	.	.	.	.	.
=78	=78	=78	=78	=78	=78
2.G	[0D	4G]	0r	2b-y	1gg
.	.	4A	.	.	.
.	.	4B-y	.	2b-y	.
4F	.	4c	.	.	.
1D	.	2d	.	2a	1ff
.	.	2A	.	[2f	.
=79	=79	=79	=79	=79	=79
2r	0D_	[0B-y	0r	2f]	2r
2d	.	.	.	2f	2ff
2G	.	.	.	2g	2dd
[2d	.	.	.	2d	[2ff
=80	=80	=80	=80	=80	=80
4d]	0D]	1B-]	1r	1f	2ff]
4c	.	.	.	.	.
4B-y	.	.	.	.	2ee
4A	.	.	.	.	.
1B-y	.	1r	1G	1g	1dd
=81	=81	=81	=81	=81	=81
[0A	[0E	2r	1c	[0a	0cc
.	.	2c	.	.	.
.	.	4c	2A	.	.
.	.	4d	.	.	.
.	.	4e	[2c	.	.
.	.	4f	.	.	.
=82	=82	=82	=82	=82	=82
1A]	0E]	2e	4c]	0a]	0r
.	.	.	4B-y	.	.
.	.	1d	4A	.	.
.	.	.	4G	.	.
2r	.	.	1A	.	.
[2c	.	2c	.	.	.
=83	=83	=83	=83	=83	=83
2c]	0G	1d	1G	0r	1dd
2B-y	.	.	.	.	.
2c	.	1r	1r	.	2ee-i
[2B-y	.	.	.	.	[2dd
=84	=84	=84	=84	=84	=84
2B-]	0F	1r	0r	1r	2dd]
4A	.	.	.	.	4cc
4G	.	.	.	.	4b-y
1A	.	1c	.	2r	2cc
.	.	.	.	2a	2cc
=85	=85	=85	=85	=85	=85
0G	0G	2d	0r	2b-y	1b-y
.	.	4B-y	.	2g	.
.	.	4c	.	.	.
.	.	4d	.	2b-y	1r
.	.	4e-i	.	.	.
.	.	[2d	.	2b-y	.
=86	=86	=86	=86	=86	=86
0A	0E	2d]	0r	1a	0r
.	.	4c	.	.	.
.	.	4B-y	.	.	.
.	.	2c	.	2r	.
.	.	2c	.	2a	.
=87	=87	=87	=87	=87	=87
0G	0G	0d	1r	2b-y	2r
.	.	.	.	2g	2dd
.	.	.	2r	2b-y	2dd
.	.	.	2g	2b-y	2dd
=88	=88	=88	=88	=88	=88
0r	[0D	0r	2f	2.a	2.ff
.	.	.	4d	.	.
.	.	.	4e	4g	4ee
.	.	.	4f	2a	[1dd
.	.	.	4g	.	.
.	.	.	[2a	2f	.
=89	=89	=89	=89	=89	=89
1G	0D]	1r	4a]	1b-y	1dd]
.	.	.	4g	.	.
.	.	.	1g	.	.
1D	.	1A	.	1a	2r
.	.	.	2f#i	.	2dd
=90	=90	=90	=90	=90	=90
0G	[0D	1.B-y	0g	2g	2b-y
.	.	.	.	2b-y	4g
.	.	.	.	.	4a
.	.	.	.	2b-y	4b-y
.	.	.	.	.	4cc
.	.	2G	.	2b-y	[2dd
=91	=91	=91	=91	=91	=91
1F	0D]	1A	0r	1a	4dd]
.	.	.	.	.	4cc
.	.	.	.	.	1cc
1G	.	1B-y	.	1g	.
.	.	.	.	.	2bni
=92	=92	=92	=92	=92	=92
0C	0C	1G	0g	0e	[0cc
.	.	[1c	.	.	.
=93	=93	=93	=93	=93	=93
0r	0C	1c]	1g	2r	0cc]
.	.	.	.	1e	.
.	.	1c	[1a	.	.
.	.	.	.	2e	.
=94	=94	=94	=94	=94	=94
0r	0r	1.d	2a]	1.f	0r
.	.	.	2g	.	.
.	.	.	1f	.	.
.	.	2c	.	2e	.
=95	=95	=95	=95	=95	=95
0r	0r	1B-y	0g	2d	1r
.	.	.	.	1f	.
.	.	1c	.	.	[1cc
.	.	.	.	2e	.
=96	=96	=96	=96	=96	=96
2r	0r	1F	0a	2.f	1cc]
1F	.	.	.	.	.
.	.	.	.	8eL	.
.	.	.	.	8dJ	.
.	.	[1f	.	2c	1cc
2F	.	.	.	[2f	.
=97	=97	=97	=97	=97	=97
1.B-y	0r	1f]	0r	2f]	1.dd
.	.	.	.	2d	.
.	.	[1g	.	[1d	.
2A	.	.	.	.	2cc
=98	=98	=98	=98	=98	=98
1G	0r	2g]	0r	2d]	1b-y
.	.	2d	.	1g	.
[1c	.	2e	.	.	1cc
.	.	[2f	.	2g	.
=99	=99	=99	=99	=99	=99
1c]	0r	2f]	1r	2g	1cc
.	.	2e	.	2g	.
2F	.	2.d	2r	2a	2r
[2d	.	.	[2a	4f	[2ff
.	.	8cL	.	4g	.
.	.	8B-yJ	.	.	.
=100	=100	=100	=100	=100	=100
2d]	0r	1A	2a]	4a	2ff]
.	.	.	.	4b-y	.
2c	.	.	2a	2cc	2ee
2d	.	1r	1a	2f	2ff
2A	.	.	.	[2cc	[2ee
=101	=101	=101	=101	=101	=101
2c	0r	1r	2g	4cc]	4ee]
.	.	.	.	4b-y	4dd
2d	.	.	2f	1a	1ff
1B-y	.	2r	1d	.	.
.	.	2G	.	2g	4ee
.	.	.	.	.	4dd
=102	=102	=102	=102	=102	=102
2A	0C	2c	2e	1.a	0cc
4F	.	4A	2f	.	.
4G	.	4B-y	.	.	.
4A	.	4c	1e	.	.
4B-y	.	4d	.	.	.
[2c	.	[2e	.	4g	.
.	.	.	.	4f	.
=103	=103	=103	=103	=103	=103
2c]	0E	4e]	0r	1g	0r
.	.	4d	.	.	.
2B-y	.	1d	.	.	.
1A	.	.	.	2r	.
.	.	2c	.	2a	.
=104	=104	=104	=104	=104	=104
2.D	0D	2B-y	0r	2f	1r
.	.	4A	.	1a	.
4E	.	4G	.	.	.
2F	.	2A	.	.	2r
2G	.	2B-y	.	[2g	2gg
=105	=105	=105	=105	=105	=105
[0C	[0E	1c	2r	4g]	2ee
.	.	.	.	4f	.
.	.	.	2g	4e	2.gg
.	.	.	.	4d	.
.	.	2r	2e	1c	.
.	.	.	.	.	4ff
.	.	2g	[2g	.	4ee
.	.	.	.	.	4dd
=106	=106	=106	=106	=106	=106
1C]	0E]	2e	4g]	1g	0cc
.	.	.	4f	.	.
.	.	2.g	4e	.	.
.	.	.	4d	.	.
2r	.	.	2c	1g	.
.	.	4f	.	.	.
2c	.	4e	2g	.	.
.	.	4d	.	.	.
=107	=107	=107	=107	=107	=107
2A	0E	2.c	2a	0r	2r
2.c	.	.	2g	.	1cc
.	.	4B-y	.	.	.
.	.	4A	4c	.	.
4B-y	.	4G	4d	.	.
4A	.	4c	4e	.	2cc
4G	.	4B-y	4f	.	.
=108	=108	=108	=108	=108	=108
2F	0F	4A	2d	0r	2dd
.	.	4G	.	.	.
2E	.	1G	1c	.	2ee
1D	.	.	.	.	2ff
.	.	2F	2B-y	.	2dd
=109	=109	=109	=109	=109	=109
1C	0E	1G	1.c	2r	1.gg
.	.	.	.	1g	.
[1c	.	1r	.	.	.
.	.	.	2d	2g	4ff
.	.	.	.	.	4ee
=110	=110	=110	=110	=110	=110
2c]	0C	1r	1e	2g	1dd
2B-y	.	.	.	2g	.
1A	.	1F	1f	1a	[1cc
=111	=111	=111	=111	=111	=111
0G	0D	1.B-y	1.g	1r	2cc]
.	.	.	.	.	4bni
.	.	.	.	.	4a
.	.	.	.	2r	1bni
.	.	2G	2d	[2g	.
=112	=112	=112	=112	=112	=112
[0C	[0Cl	1G	2e	2g]	0cc
.	.	.	1g	2g	.
.	.	[1g	.	2e	.
.	.	.	2f	2c	.
=113	=113	=113	=113	=113	=113
0C]	0C_	2g]	2e	1.cc	0r
.	.	2f	2c	.	.
.	.	2e	1g	.	.
.	.	2d	.	2b-y	.
=114	=114	=114	=114	=114	=114
0F	0C_	2.c	2.f	2a	0cc
.	.	.	.	1g	.
.	.	4B-y	8eL	.	.
.	.	.	8dJ	.	.
.	.	1A	2c	.	.
.	.	.	2d	2f	.
=115	=115	=115	=115	=115	=115
[0Cl	0C_	[0Gl	2e	1g	[0ccl
.	.	.	2c	.	.
.	.	.	2.e	2g	.
.	.	.	.	2e	.
.	.	.	4f	.	.
=116	=116	=116	=116	=116	=116
0C_	0C_	0G_	1.g	[0el	0cc_
.	.	.	2e	.	.
=117	=117	=117	=117	=117	=117
00C]	00C]	00G]	00el	00e]	00cc]
==	==	==	==	==	==
*-	*-	*-	*-	*-	*-
!!!system-decoration: [*]
!!!RDF**kern: i = editorial accidental
!!!RDF**kern: l = terminal long
!!!ENC: Benjamin Ory
!!!END: 2021/12/10
!!!EED: Benjamin Ory
!!!EEV: 2021/12/10
!!!YEC: Copyright 2021 Benjamin Ory, All Rights Reserved
!!!ONB: Translated from MusicXML on 2021/12/10
